vendor/shopware/storefront/Resources/app/storefront/dist/assets/icon/default/image.svg

<svg xmlns="http://www.w3.org/2000/svg" width="24" height="24" viewBox="0 0 24 24">
  <path fill="#758CA3" fill-rule="evenodd" d="M2,20.4948007 L9.25259068,12.3356362 C9.63484734,11.9055974 10.300257,11.8860435 10.7071068,12.2928932 L12.7071068,14.2928932 C12.7218834,14.3076698 12.7361009,14.3227938 12.7497593,14.3382389 L15.2317787,11.3598156 C15.6082272,10.9080774 16.2913058,10.8770923 16.7071068,11.2928932 L22,16.5857864 L22,3 C22,2.44771525 21.5522847,2 21,2 L3,2 C2.44771525,2 2,2.44771525 2,3 L2,20.4948007 Z M3.33795495,22 L21,22 C21.5522847,22 22,21.5522847 22,21 L22,19.4142136 L16.0671984,13.4814119 L11.7682213,18.6401844 C11.4146572,19.0644613 10.7840925,19.1217854 10.3598156,18.7682213 C9.9355387,18.4146572 9.87821464,17.7840925 10.2317787,17.3598156 L11.4841592,15.856959 C11.4160067,15.8158633 11.351699,15.7659126 11.2928932,15.7071068 L10.0428168,14.4570304 L3.33795495,22 Z M3,0 L21,0 C22.6568542,1.3235398e-16 24,1.34314575 24,3 L24,21 C24,22.6568542 22.6568542,24 21,24 L3,24 C1.34314575,24 2.02906125e-16,22.6568542 3.94430453e-31,21 L3.94430453e-31,3 C-2.02906125e-16,1.34314575 1.34314575,1.1851685e-15 3,0 Z M7.5,11 C5.56700338,11 4,9.43299662 4,7.5 C4,5.56700338 5.56700338,4 7.5,4 C9.43299662,4 11,5.56700338 11,7.5 C11,9.43299662 9.43299662,11 7.5,11 Z M7.5,9 C8.32842712,9 9,8.32842712 9,7.5 C9,6.67157288 8.32842712,6 7.5,6 C6.67157288,6 6,6.67157288 6,7.5 C6,8.32842712 6.67157288,9 7.5,9 Z"/>
</svg>

<svg xmlns="http://www.w3.org/2000/svg" width="24" height="24" viewBox="0 0 24 24"><path fill="#758CA3" fill-rule="evenodd" d="m2 20.4948 7.2526-8.1592c.3822-.43 1.0477-.4496 1.4545-.0427l2 2a1.066 1.066 0 0 1 .0427.0453l2.482-2.9784c.3764-.4517 1.0595-.4827 1.4753-.067L22 16.5859V3c0-.5523-.4477-1-1-1H3c-.5523 0-1 .4477-1 1v17.4948zM3.338 22H21c.5523 0 1-.4477 1-1v-1.5858l-5.9328-5.9328-4.299 5.1588c-.3535.4243-.9841.4816-1.4084.128-.4243-.3535-.4816-.9841-.128-1.4084l1.2524-1.5028a1.0023 1.0023 0 0 1-.1913-.1499l-1.25-1.25L3.3378 22zM3 0h18c1.6569 0 3 1.3431 3 3v18c0 1.6569-1.3431 3-3 3H3c-1.6569 0-3-1.3431-3-3V3c0-1.6569 1.3431-3 3-3zm4.5 11C5.567 11 4 9.433 4 7.5S5.567 4 7.5 4 11 5.567 11 7.5 9.433 11 7.5 11zm0-2C8.3284 9 9 8.3284 9 7.5S8.3284 6 7.5 6 6 6.6716 6 7.5 6.6716 9 7.5 9z"/></svg>
